X:331
T:Game of Love, The
D:Dervish: ?
O:Ireland
Z:Nigel Gatherer
L:1/8
M:4/4
K:Em
A|:B2 EF G3 B|AD (3DDD FAAc|B2 EF GAB^c|d^cBA Be e2:|
eB (3BBB egfe|defg a3 z|eB (3BBB egfe|dBAF BE E2|
eB (3BBB egfe|defg a3 z|g3 e f3 d|edBA Be e2|]
<end>
<start>
